.local/share/icons/Gruvbox-Plus-Dark/panel/22/gpm-brightness-kbd-disabled.svg

<svg xmlns="http://www.w3.org/2000/svg" width="22" height="22" version="1.1">
 <defs>
  <style id="current-color-scheme" type="text/css">
   .ColorScheme-Text { color:#ebdbb2; } .ColorScheme-Highlight { color:#458588; }
  </style>
 </defs>
 <path style="fill:currentColor;opacity:0.3" class="ColorScheme-Text" d="M 11 3.7207031 L 8.8105469 6 L 6 6 L 6 8.8105469 L 3.7207031 11 L 7 11 C 7 8.7900001 8.7900001 7 11 7 C 13.21 7 15 8.7900001 15 11 L 18.279297 11 L 16 9 L 16 6 L 13.220703 6 L 11 3.7207031 z M 11 8 C 9.3431001 8 8 9.3431001 8 11 L 11 11 L 11 8 z"/>
 <path class="ColorScheme-Text" d="m 18,13 c 0,-0.554 -0.446,-1 -1,-1 H 4 c -0.554,0 -1,0.446 -1,1 v 5 c 0,0.554 0.446,1 1,1 h 13 c 0.554,0 1,-0.446 1,-1 z m -3,0 v 1 h -1 v -1 z m 0,2 v 1 h -1 v -1 z m -1,2 v 1 H 7.0000002 v -1 z m -1,-4 v 1 h -1 v -1 z m 0,2 v 1 h -1 v -1 z m -2,-2 v 1 h -1 v -1 z m 0,2 v 1 H 10 V 15 Z M 9.0000002,13 v 1 h -1 v -1 z m 0,2 v 1 h -1 v -1 z m -2,-2 v 1 h -1 v -1 z m 0,2 v 1 h -1 v -1 z" style="fill:currentColor;fill-rule:evenodd;opacity:0.3"/>
</svg>

<svg width="22" height="22" version="1.1" xmlns="http://www.w3.org/2000/svg">
  <defs>
    <style id="current-color-scheme" type="text/css">.ColorScheme-Text { color:#ebdbb2; } .ColorScheme-Highlight { color:#458588; } .ColorScheme-NeutralText { color:#fe8019; } .ColorScheme-PositiveText { color:#689d6a; } .ColorScheme-NegativeText { color:#fb4934; }</style>
  </defs>
  <path class="ColorScheme-Text" d="m11 3.721-2.189 2.279h-2.811v2.811l-2.279 2.189h3.279c0-2.21 1.79-4 4-4 2.21 0 4 1.79 4 4h3.279l-2.279-2v-3h-2.779l-2.221-2.279zm0 4.279c-1.657 0-3 1.343-3 3h3v-3z" fill="currentColor" opacity=".3"/>
  <path class="ColorScheme-Text" d="m18 13c0-0.554-0.446-1-1-1h-13c-0.554 0-1 0.446-1 1v5c0 0.554 0.446 1 1 1h13c0.554 0 1-0.446 1-1zm-3 0v1h-1v-1zm0 2v1h-1v-1zm-1 2v1h-7v-1zm-1-4v1h-1v-1zm0 2v1h-1v-1zm-2-2v1h-1v-1zm0 2v1h-1v-1zm-2-2v1h-1v-1zm0 2v1h-1v-1zm-2-2v1h-1v-1zm0 2v1h-1v-1z" fill="currentColor" opacity=".3"/>
</svg>
